X: 8
T: Chanter ne puis chieux la mynonne
N: Derived from Com3005-Chanter_ne_puis_chieux_la_mynonne.krn
C: Loyset Comp\`ere
%%abc-version 2.0
%%abcx-abcm2ps-target-version 5.9.1 (29 Sep 2008)
%%abc-creator hum2abc beta
%%abcx-conversion-date 2019/02/16 20:28:09
%%abc-edited-by Jesse Rodin
%%abc-edited-by Megan K. Eagen 2013/12/01
%%abcx-initial-encoding-date 2013/12/01/
%%humdrum-veritas 1828029030
%%humdrum-veritas-data 2758782871
%%linebreak <none>
%%barnumbers 0
L: 1/4
M: 2/1
Q: 1/2=120
V: 1 clef=treble
V: 2 clef=treble-8
V: 3 clef=bass
K: F
[V:1] A8 | 
[V:2] z8 | 
[V:3] z8 | 
[V:1] A3GF2E2 | 
[V:2] d8 | 
[V:3] z8 | 
[V:1] D8 | 
[V:2] d3cB2A2 | 
[V:3] G,8 | 
[V:1] z8 | 
[V:2] G8 | 
[V:3] G,3F,E,2D,2 | 
[V:1] G8 | 
[V:2] z8 | 
[V:3] C,8 | 
[V:1] G3FE2D2 | 
[V:2] c8 | 
[V:3] z8 | 
[V:1] C8 | 
[V:2] c3BA2G2 | 
[V:3] F,8 | 
[V:1] z4F4- | 
[V:2] F8 | 
[V:3] F,3E,D,2C,2 | 
[V:1] F4G4- | 
[V:2] z4B4 | 
[V:3] B,,4G,,4 | 
[V:1] G2A2B4- | 
[V:2] c4d4- | 
[V:3] C,4B,,4- | 
[V:1] B2A2G2A2- | 
[V:2] d2cBc4- | 
[V:3] B,,4F,4- | 
[V:1] AGFED2G2- | 
[V:2] c4B2AG | 
[V:3] F,4G,4 | 
[V:1] G2^FEF4 | 
[V:2] A8 | 
[V:3] D,8 | 
[V:1] G8- | 
[V:2] G8 | 
[V:3] z4G,,4 | 
[V:1] G8 | 
[V:2] z4G4 | 
[V:3] B,,4C,4 | 
[V:1] z4G4 | 
[V:2] B4c4 | 
[V:3] D,2_E,4D,C, | 
[V:1] B4A2G2- | 
[V:2] d3ef2e2- | 
[V:3] B,,2A,,G,,F,,2C,2- | 
[V:1] GFEDE4 | 
[V:2] edd4^c2 | 
[V:3] C,2F,2G,2A,2 | 
[V:1] D4z4 | 
[V:2] d8- | 
[V:3] D,2G,4F,2- | 
[V:1] F4G3A | 
[V:2] d4e4- | 
[V:3] F,E,D,2C,D,E,F, | 
[V:1] B2c3BAG | 
[V:2] e4c4 | 
[V:3] G,2A,3G,F,E, | 
[V:1] F3E/D/C2B,2- | 
[V:2] d2cBA2G2 | 
[V:3] D,3E,F,2G,2- | 
[V:1] B,CDEF2G2 | 
[V:2] d4B4 | 
[V:3] G,A,B,4A,G, | 
[V:1] A2B4A2 | 
[V:2] c8 | 
[V:3] F,2E,2F,4 | 
[V:1] B6A2- | 
[V:2] B3cd2c2- | 
[V:3] B,,4z2F,,2- | 
[V:1] AGFED4- | 
[V:2] cBAGF2B2- | 
[V:3] F,,G,,A,,2B,,2G,,2 | 
[V:1] D2CB,A,4 | 
[V:2] BAG4^F2 | 
[V:3] B,,2C,2D,4 | 
[V:1] G,8 | 
[V:2] G8- | 
[V:3] G,,3A,,B,,2C,2- | 
[V:1] z4D4 | 
[V:2] G8 | 
[V:3] C,2B,,A,,G,,2G,2- | 
[V:1] D8 | 
[V:2] z4B4 | 
[V:3] G,2F,E,D,C,B,,A,, | 
[V:1] z4D4 | 
[V:2] B8 | 
[V:3] G,,2G,3D,G,2 | 
[V:1] F8 | 
[V:2] z4d4- | 
[V:3] F,2D,3E,F,2 | 
[V:1] F4G3A | 
[V:2] d2cB_e4 | 
[V:3] B,,2D,2C,4 | 
[V:1] B2c4BA | 
[V:2] d2c3d/e/f2- | 
[V:3] B,,2F,3E,D,2- | 
[V:1] G4F2G2- | 
[V:2] f2e2d2e2- | 
[V:3] D,2C,2D,2C,2- | 
[V:1] GFEDE4 | 
[V:2] edd4^c2 | 
[V:3] C,2B,,2G,,2A,,2 | 
[V:1] D8 | 
[V:2] d6B2- | 
[V:3] B,,C,D,E,F,2G,2- | 
[V:1] z4F4 | 
[V:2] B2AGA4 | 
[V:3] G,2F,E,D,4 | 
[V:1] G8 | 
[V:2] G3AB2c2- | 
[V:3] z2G,3F,E,D, | 
[V:1] A8 | 
[V:2] c2A4d2- | 
[V:3] C,2F,3E,D,C, | 
[V:1] B4G2A2- | 
[V:2] d2B2c4 | 
[V:3] B,,2_E,4C,2 | 
[V:1] AGFED2CB, | 
[V:2] A2B4AG | 
[V:3] D,4B,,2C,2 | 
[V:1] A,2G,3A,B,C | 
[V:2] F2G2_E4 | 
[V:3] D,2_E,2C,4 | 
[V:1] B,3CDED2- | 
[V:2] D2G4F2 | 
[V:3] G,,3A,,B,,C,D,2 | 
[V:1] DEFGF3G | 
[V:2] B4A2d2- | 
[V:3] B,,C,D,E,F,2D,E, | 
[V:1] ABA2G2cB | 
[V:2] d2c2_e3d | 
[V:3] F,G,A,B,C2C,D, | 
[V:1] AGG4^F2 | 
[V:2] c2B2A4 | 
[V:3] E,F,G,2D,4 | 
[V:1] G8 |]  
[V:2] G8 |]  
[V:3] G,,8 |]  



